_includes/icons/ios-adobe-photoshop.svg

<svg fill="#666" height="50" viewBox="0 0 50 50" width="50" xmlns="http://www.w3.org/2000/svg"><path d="m6 4c-1.0930628 0-2 .9069372-2 2v38c0 1.093063.9069372 2 2 2h38c1.093063 0 2-.906937 2-2v-38c0-1.0930628-.906937-2-2-2zm0 2h38v38h-38zm12.585938 8c-1.440001 0-2.591985.160016-3.583985.416016l-.001953 21.583984h2.464844v-9.169922c.352.031.67189.03125 1.08789.03125 1.92 0 3.935891-.798437 5.087891-2.398437.833-1.088 1.310547-2.432016 1.310547-4.416016 0-1.887-.543406-3.456469-1.566406-4.480469-1.12-1.088-2.815828-1.566406-4.798828-1.566406zm.390624 1.640625c2.751 0 3.646485 1.981453 3.646485 4.189453 0 3.04-1.63225 4.640625-4.03125 4.640625-.416 0-.704188-.0315-.992188-.0625v-8.607422c.32-.097.800953-.160156 1.376953-.160156zm12.740235 4.359375c-2.491 0-4.416016 1.768641-4.416016 4.306641 0 1.767 1.12675 3.116593 3.21875 4.433593 1.626 1.028 2.056641 1.863735 2.056641 3.052735 0 1.381-.927469 2.248047-2.355469 2.248047-1.03 0-2.025844-.449735-2.589844-.802735l-.630859 1.861328c.697.546 1.992297.900391 3.154297.900391 2.656 0 4.845703-1.509953 4.845703-4.626953 0-2.152-1.459406-3.598859-3.316406-4.755859-1.594-1.027-1.992188-1.638016-1.992188-2.666016 0-1.027.695641-1.990234 2.056641-1.990234.863-.000001 1.528203.289031 2.158203.707031l.664062-1.865235c-.664-.417-1.591515-.802734-2.853515-.802734z"/></svg>

<svg xmlns="http://www.w3.org/2000/svg" viewBox="0 0 50 50" width="50" height="50" fill="#666"><path style="line-height:normal;text-indent:0;text-align:start;text-decoration-line:none;text-decoration-style:solid;text-decoration-color:#000;text-transform:none;block-progression:tb;isolation:auto;mix-blend-mode:normal" d="M 6 4 C 4.9069372 4 4 4.9069372 4 6 L 4 44 C 4 45.093063 4.9069372 46 6 46 L 44 46 C 45.093063 46 46 45.093063 46 44 L 46 6 C 46 4.9069372 45.093063 4 44 4 L 6 4 z M 6 6 L 44 6 L 44 44 L 6 44 L 6 6 z M 18.585938 14 C 17.145937 14 15.993953 14.160016 15.001953 14.416016 L 15 36 L 17.464844 36 L 17.464844 26.830078 C 17.816844 26.861078 18.136734 26.861328 18.552734 26.861328 C 20.472734 26.861328 22.488625 26.062891 23.640625 24.462891 C 24.473625 23.374891 24.951172 22.030875 24.951172 20.046875 C 24.951172 18.159875 24.407766 16.590406 23.384766 15.566406 C 22.264766 14.478406 20.568938 14 18.585938 14 z M 18.976562 15.640625 C 21.727562 15.640625 22.623047 17.622078 22.623047 19.830078 C 22.623047 22.870078 20.990797 24.470703 18.591797 24.470703 C 18.175797 24.470703 17.887609 24.439203 17.599609 24.408203 L 17.599609 15.800781 C 17.919609 15.703781 18.400562 15.640625 18.976562 15.640625 z M 31.716797 20 C 29.225797 20 27.300781 21.768641 27.300781 24.306641 C 27.300781 26.073641 28.427531 27.423234 30.519531 28.740234 C 32.145531 29.768234 32.576172 30.603969 32.576172 31.792969 C 32.576172 33.173969 31.648703 34.041016 30.220703 34.041016 C 29.190703 34.041016 28.194859 33.591281 27.630859 33.238281 L 27 35.099609 C 27.697 35.645609 28.992297 36 30.154297 36 C 32.810297 36 35 34.490047 35 31.373047 C 35 29.221047 33.540594 27.774188 31.683594 26.617188 C 30.089594 25.590188 29.691406 24.979172 29.691406 23.951172 C 29.691406 22.924172 30.387047 21.960938 31.748047 21.960938 C 32.611047 21.960937 33.27625 22.249969 33.90625 22.667969 L 34.570312 20.802734 C 33.906312 20.385734 32.978797 20 31.716797 20 z"/></svg>
